X: 57
T:My Darling Asleep
M:6/8
L:1/8
C:Transcribed from Jay Ungar Version by S.C.
R:jig
K:D
a3g|fdd cAA|BAG A2G|FAA def|gfg eag|fdd cAA|!
BAG A2G|FAA def|[1gec d2 e:|[2gec d2 A||FAA BAG|FAA BAG|!
FAA def|gfg eag|fdd cAA|BAG A2G|FAA def|[1gec d2 A|!
[2gec d2 e|]"End Tag"fdd ecc|dBB cAA|BGG AFF|GEC D2z|]
